X: 10852
Q: "Lively."
M: 6/8
L: 1/8
K: G
d |\
d2B e2c | d2B gfe | d2B BAG | FAz z2d |\
d2B e2c | d2B gfe | e2B BAG | FAz z2 |]
c |\


